X:273
T:Gathering Peascods
S:Colin Hume's website,  colinhume.com  - chords can also be printed below the stave.
Q:1/2=116
M:C|
C:John Playford, 1651
K:G
P:A
|: z2 | "G"d4"D/F#"d2d2 | "Em"B3 c "G/D"d2 d2 | "C"e2 d2 "Am"c2 B2 | "D"A6 B2 | "Am"A2 G2 "D7"G2 F2 | "G"G6 :|
|: G2 | "D"F2 D2 F2 G2 | "D"A4 "G"B2 A2 | "Em"GA B2 "A7"A2 G2 | "Bm"F6 F2 | "Em"E2 D2 "A7"E3 D | "D"D6 :|
|: d2 | "G"B2 G2 "G7"G2 AB | "C"c6 c2 | "G"B2 G2 "G7"G2 AB | "C"c4- "D7"c2d2 |\
"G"B2 G2 "G7"G2 AB | "C"c3 d "Am"e2 dc | "G"B2 cB "D7"A3 G | "G"G6 :|

